frontend/public/images/instagram.svg

<svg fill="none" shape-rendering="geometricPrecision" viewBox="0 0 45 45"><circle cx="22.5" cy="22.5" r="22.5" fill="#2f2f2f"/><g clip-path="url(#a)"><path fill="#fff" d="M23 13.163c3.204 0 3.584.012 4.85.07 3.252.148 4.771 1.691 4.919 4.919.058 1.265.069 1.645.069 4.849s-.012 3.584-.069 4.849c-.149 3.225-1.664 4.771-4.919 4.919-1.266.058-1.644.07-4.85.07-3.204 0-3.584-.012-4.849-.07-3.26-.149-4.771-1.699-4.919-4.92-.058-1.265-.07-1.644-.07-4.849s.013-3.583.07-4.849c.149-3.227 1.664-4.771 4.919-4.919 1.266-.057 1.645-.069 4.849-.069M23 11c-3.259 0-3.667.014-4.947.072-4.358.2-6.78 2.618-6.98 6.98C11.014 19.333 11 19.741 11 23s.014 3.668.072 4.948c.2 4.358 2.618 6.78 6.98 6.98 1.281.058 1.689.072 4.948.072s3.668-.014 4.948-.072c4.354-.2 6.782-2.618 6.979-6.98.059-1.28.073-1.689.073-4.948s-.014-3.667-.072-4.947c-.196-4.354-2.617-6.78-6.979-6.98C26.668 11.014 26.259 11 23 11m0 5.838a6.162 6.162 0 1 0 0 12.324 6.162 6.162 0 0 0 0-12.324M23 27a4 4 0 1 1 0-8 4 4 0 0 1 0 8m6.406-11.845a1.44 1.44 0 1 0 0 2.881 1.44 1.44 0 0 0 0-2.881"/></g><defs><clipPath id="a"><path fill="#fff" d="M11 11h24v24H11z"/></clipPath></defs></svg>

<svg width="45" height="45" viewBox="0 0 45 45" fill="none" xmlns="http://www.w3.org/2000/svg" shape-rendering="geometricPrecision">
<circle cx="22.5" cy="22.5" r="22.5" fill="#2F2F2F"/>
<g clip-path="url(#clip0_637_3559)">
<path d="M23 13.163C26.204 13.163 26.584 13.175 27.85 13.233C31.102 13.381 32.621 14.924 32.769 18.152C32.827 19.417 32.838 19.797 32.838 23.001C32.838 26.206 32.826 26.585 32.769 27.85C32.62 31.075 31.105 32.621 27.85 32.769C26.584 32.827 26.206 32.839 23 32.839C19.796 32.839 19.416 32.827 18.151 32.769C14.891 32.62 13.38 31.07 13.232 27.849C13.174 26.584 13.162 26.205 13.162 23C13.162 19.796 13.175 19.417 13.232 18.151C13.381 14.924 14.896 13.38 18.151 13.232C19.417 13.175 19.796 13.163 23 13.163ZM23 11C19.741 11 19.333 11.014 18.053 11.072C13.695 11.272 11.273 13.69 11.073 18.052C11.014 19.333 11 19.741 11 23C11 26.259 11.014 26.668 11.072 27.948C11.272 32.306 13.69 34.728 18.052 34.928C19.333 34.986 19.741 35 23 35C26.259 35 26.668 34.986 27.948 34.928C32.302 34.728 34.73 32.31 34.927 27.948C34.986 26.668 35 26.259 35 23C35 19.741 34.986 19.333 34.928 18.053C34.732 13.699 32.311 11.273 27.949 11.073C26.668 11.014 26.259 11 23 11ZM23 16.838C19.597 16.838 16.838 19.597 16.838 23C16.838 26.403 19.597 29.163 23 29.163C26.403 29.163 29.162 26.404 29.162 23C29.162 19.597 26.403 16.838 23 16.838ZM23 27C20.791 27 19 25.21 19 23C19 20.791 20.791 19 23 19C25.209 19 27 20.791 27 23C27 25.21 25.209 27 23 27ZM29.406 15.155C28.61 15.155 27.965 15.8 27.965 16.595C27.965 17.39 28.61 18.035 29.406 18.035C30.201 18.035 30.845 17.39 30.845 16.595C30.845 15.8 30.201 15.155 29.406 15.155Z" fill="white"/>
</g>
<defs>
<clipPath id="clip0_637_3559">
<rect width="24" height="24" fill="white" transform="translate(11 11)"/>
</clipPath>
</defs>
</svg>
